X: 0
T: Legends Of The Infancy
Z: J. F. Bridge, Mus. Doc
Z: Copyright © 2003 by Douglas D. Anderson
Z: Released To The Public Domain
L: 1/4
M: 4/4
Q: 1/4=120
V: P1 name="Staff"
%%MIDI program 1 19
K: G
[V: P1]  B, | B3/ G/ F E | F G E G | d3/ B/ A G | (A2 B) B | e B c3/ c/ | d A B3/ B/ | B A G A | B3 B | B3/ B/ c e | d A B G | E G (F/G/) A | (c2 B) B | e3/ B/ c B | A3/ G/ F E | B3/ G/ F G | E3|]
w: Come forth, ye wond'- ring child- ren all, Come forth from wood and wild,_ And let us sing the days of Christ When He was but a child. When He was but a lit- tle Child, As ten- der as_ might be,_ That bless- ed night pale M- ary came From dis- tant Ga- li lee.

